!!!OTL: Xinnongcun xiaochang
!!!ARE: Asia, China,ÿShandong Linqing
!! III, 326
!!!SCT: C1758
!!!YEM: Copyright 1995, estate of Helmut Schaffrath.
**kern
*ICvox
*Ivox
*M2/4
*k[]
*C:
{4ee
8ee
8dd
=1
8ee
8dd
4cc
=2
8.cc
16ee
8dd
8cc
=3
8dd
8a
[4g
=4
4g]}
{4cc
=5
8.cc
16cc
8cc
8cc
=6
4cc
4g
=7
4e
4d
=8
8g
8g
8g
8d
=9
4.c
8d
=10
2c}
=11
{8ee
16ee
16dd
8cc
8ee
=12
8dd
4.cc
=13
8cc
16a
16cc
4a
=14
2g}
=15
{8.g
16a
8cc
8cc
=16
4cc
4g
=17
8g
8a
8e
8d
=18
2c}
=19
{8d
4d
8e
=20
4.g
8cc
=21
8a
8g
8e
8d
=22
2c}
=23
{8cc
16a
16dd
8cc
8cc
=24
4cc
8a
8cc
=25
4a
4g}
=26
{4cc
4dd
=27
4cc
16a
16g
8f
=28
[2g
=29
4g]
4r}
==
!!!AGN: Xiaodiao, Shidiao, Yingxiong diao
!!!AMT: simple duple
!!!AIN: vox
!!!EED: Helmut Schaffrath
!!!EEV: 1.0
*-
!!!ONB: Tied note syntax fixed by Craig Sapp, 2004/05/03/
